X:1
T:Title
%%score { ( 1 3 ) | 2 }
L:1/8
Q:1/4=100
M:6/8
K:Ab
V:1 treble nm="Grand Piano"
V:3 treble 
V:2 bass 
V:1
 [CE]2 [Ec] [Ec]2 [DB] | [DB]2 [CA] [CA]3 | [CE]2 [CA] [CB]2 [CA] | [DA]2 [DG] [DG]3 | E2 d d2 c | %5
w: Chas.~H.~Gabriel * * *|||||
 c2 B B3 | [Ge]2 [GB] B2 A | G2 [=DF] z _D2 | [CE]2 [Ec] [Ec]2 [CEe] | [DEe]2 [DEG] [DEG]3 | %10
w: |||||
 [DEG]2 [Gd] [Gd]2 [Gf] | f2 c c3 | e2 c c2 A | [FB]2 [Fc] [Fd]3 | dc[FB] e2 A | c2 B [CEA]3 |] %16
w: ||||||
V:2
 [A,,A,]2 [A,,A,] [A,,E,]2 [A,,E,] | [A,,A,]2 [A,,A,] [A,,E,]3 | %2
 [A,,A,]2 [A,,A,] [A,,E,]2 [A,,E,] | [B,,B,]2 [B,,B,] [B,,E,]3 | [E,B,]2 [E,B,E] [E,G,E]2 [E,G,E] | %5
 [E,B,E]2 [E,B,E] [E,G,E]3 | [E,B,]2 [E,E] [G,E]2 [A,CE] | [B,=D]2 [B,,A,] [E,G,]3 | %8
 [A,,A,]2 [A,,A,] [A,,A,]2 A,, | B,,2 B,, B,,3 | E,2 [E,B,] [E,B,]2 [E,D] | %11
 [A,CA]2 [A,EA] [A,EA]3 | [A,CA]2 [A,E][K:bass] [A,E]2 [A,CE] | [D,B,]2 [C,=A,] [B,,B,]3 | %14
 [B,,B,][C,=A,][D,B,] [E,CE]2 [E,CE] | [E,A,E]2 [E,DE] A,,3 |] %16
V:3
 x6 | x6 | x6 | x6 | x6 | x6 | x6 | z3 E3 | x6 | x6 | x6 | x6 | x6 | x6 | .F3 z3 | x6 |] %16

